X: 31036
T: Paddy Carey
R: jig
M: 6/8
K: Gmajor
|:D2 G GFG|B2 G GFG|E2 A A2 B|cBA GFE|
D2 G GFG|B2 G GFG|FED DEF|GAB A2G:|
|:GAB c2 e|d2 e dBG|GAB c2 e|dBG ~A2 G|
GAB c2 e|d2 e dBG|GFG B2 G|1 E2 F G2 D:|2 E2 F GAB||
|:c2 A AGA|B2 G GFG|F2 G A2 B|cBA FED|
c2 A AGA|B2 G GFG|FED DEF|GAB A2 G:|

